X:1
T:Tell Me the Story
T:Tell Me the Story
T:Charles Austin Miles
T:Judson Wheeler Van DeVenter, 1900
T:Public Domain Courtesy of the Cyber Hymnal™
T:Public Domain Courtesy of the Cyber Hymnal™
C:Charles Austin Miles
Z:Public Domain
Z:Courtesy of the Cyber Hymnal™
%%score ( 1 2 ) ( 3 4 )
L:1/8
Q:1/4=88
M:6/8
K:Eb
V:1 treble 
V:2 treble 
V:3 bass 
V:4 bass 
V:1
 E | [EG]>[EG][EG] [EG][EF]E | [GB][GB][Ac] [GB]3 | [EG]>[EG][EG] [EG][EF]E | [EG]3 [DF]2 E | %5
w: 1.~When|sor- row and trou- ble like|sea bil- lows roll,|Tell me the sto- ry of|Je- sus; When|
w: 2.~When|wea- ry from la- bor I|rest by the way,|Tell me the sto- ry of|Je- sus; It|
w: 3.~In|times of af- flic- tion, when|suf- fering from pain,|Tell me the sto- ry of|Je- sus; It|
w: 4.~When|life here is o- ver and|time is no more,|Tell me the sto- ry of|Je- sus; O|
 [EG]>[EG][EG] [EG][EF]E | [GB][GB][Ac] [GB]3 | [Fd]>[Fd][Fd] [Ge][Fd][Ec] | B3 [FB]3 || %9
w: e- vil as- sails me and|doubts fill my soul,|Tell me the sto- ry of|Je- sus.|
w: strength- ens my pur- pose and|bright- ens the day,|Tell me the sto- ry of|Je- sus.|
w: soft- ens my pil- low, re-|vives me a- gain;|Tell me the sto- ry of|Je- sus.|
w: tell it a- gain on the|beau- ti- ful shore;|Tell me the sto- ry of|Je- sus.|
"^Refrain" B4 cG | A6 | A4 BF | G6 | [GB]>[GB][GB] [AB][Ac][Ad] | [Ge]3 [GB]3 | B4 [DA][DF] | %16
w: |||||||
w: Tell it to|me,|tell it to|me,|Tell me the sto- ry of|Je- sus;|Tell it to|
w: |||||||
w: |||||||
 E3- [B,E]2 |] %17
w: |
w: me. *|
w: |
w: |
V:2
 E | x5 E | x6 | x5 E | x5 E | x5 E | x6 | x6 | (DDE) x3 || (E>EE E) x2 | (D>DD D3) | (F>FF F) x2 | %12
 (E>EE E3) | x6 | x6 | (D>DD D) x2 | B,>B,C x2 |] %17
V:3
 [E,G,] | [E,B,]>[E,B,][E,B,] [E,B,][E,A,][E,G,] | [E,E][E,E][E,E] [E,E]3 | %3
w: ~|~ ~ ~ ~ ~ ~|~ ~ ~ ~|
 [E,B,]>[E,B,][E,B,] [E,B,][E,A,][E,G,] | [B,,B,]3 [B,,B,]2 [E,G,] | %5
w: ~ ~ ~ ~ ~ ~|~ ~ ~|
 [E,B,]>[E,B,][E,B,] [E,B,][E,A,][E,G,] | [E,E][E,E][E,E] [E,E]3 | %7
w: ~ ~ ~ ~ ~ ~|~ ~ ~ ~|
 [F,B,]>[F,B,][F,B,] [F,=A,][F,B,][F,A,] | (F,F,G,) [B,,A,]3 || [E,G,]>[E,G,][E,G,] [E,G,] z2 | %10
w: ~ ~ ~ ~ ~ ~|~ * * ~|~ ~ Tell it|
 [B,,F,]>[B,,F,][B,,F,] [B,,F,]3 | [B,,B,]>[B,,B,][B,,B,] [B,,B,] z2 | %12
w: to me, tell it|to me, Tell it|
 [E,B,]>[E,B,][E,B,] [E,B,]3 | [E,E]>[E,E][E,E] [A,D][A,E]B, | [E,B,]3 [E,B,]3 | %15
w: to me, tell it|to me, ~ ~ ~ ~|~ ~|
 [B,,B,]>[B,,B,][B,,B,] [B,,F,][B,,F,][B,,A,] | G,>G,A, [E,G,]2 |] %17
w: Tell me the sto- ry, O|tell it to me.|
V:4
 x | x6 | x6 | x6 | x6 | x6 | x6 | x6 | B,,3 x3 || x6 | x6 | x6 | x6 | x5 B, | x6 | x6 | E,4 x |] %17

